!!!COM: Music21
!!!OTL: Muiñeira do Galantiño
!!!OMV: pezas_muineiras_muineira-do-galantino_muineira-do-galantino-partitura.musicxml
**kern
*I"Gaita
*I'Bag
*clefG^2
*k[]
*M6/8
*MM210
=1
!LO:TX:a:t=[quarter-dot]=140
4.r
4ee
8ee
=||
8eeL
8cc
8eeJ
8ggL
8aa
8ggJ
=
8eeL
8cc
8eeJ
8ggL
8aa
8ggJ
=
8ddL
8ee
8ffJ
8ffL
8ee
8ddJ
=
4ee
8cc
4ee
8ee
=
8eeL
8cc
8eeJ
8ggL
8aa
8ggJ
=
8eeL
8cc
8eeJ
8ggL
8aa
8ggJ
!!linebreak:original
=
8ddL
8ee
8ffJ
8ffL
8ee
8ddJ
=
4.cc
4ee
8ee
=||
8eeL
8cc
8eeJ
8ggL
8aa
8ggJ
=
8eeL
8cc
8eeJ
8ggL
8aa
8ggJ
=
8ddL
8ee
8ffJ
8ffL
8ee
8ddJ
=
4ee
8cc
4ee
8ee
=
8eeL
8cc
8eeJ
8ggL
8aa
8ggJ
=
8eeL
8cc
8eeJ
8ggL
8aa
8ggJ
!!linebreak:original
=
8ddL
8ee
8ffJ
8ffL
8ee
8ddJ
=||
[4.cc
8ccL]
8cc
8ddJ
=||
4ee
8ee
8ccL
8dd
8eeJ
=
[4.ff
8ffL]
8dd
8eeJ
=
4ff
8ff
8ddL
8ee
8ffJ
=
4aa
[8gg
8ggL]
8cc
8ddJ
!!linebreak:original
=
4ee
8ee
8ccL
8dd
8eeJ
=
[4.ff
8ffL]
8dd
8ffJ
=
8eeL
8cc
8eeJ
8ddL
8b
8ddJ
=
[4.cc
8ccL]
8cc
8ddJ
=||
4ee
8ee
8ccL
8dd
8eeJ
=
[4.ff
8ffL]
8dd
8eeJ
=
4ff
8ff
8ddL
8ee
8ffJ
=
4aa
[8gg
8ggL]
8cc
8ddJ
!!linebreak:original
=
4ee
8ee
8ccL
8dd
8eeJ
=
[4.ff
8ffL]
8dd
8ffJ
=
8eeL
8cc
8eeJ
8ddL
8b
8ddJ
=
4.cc
4ee
8ee
==
8cc
4r
4.r
==
*-
